public/avatar/body/263.svg

<svg xmlns:xlink="http://www.w3.org/1999/xlink" height="82" width="84.85" xmlns="http://www.w3.org/2000/svg"><g transform="translate(37.4 42.25)"><use height="17.55" transform="translate(-15.2 5.25)" width="38.2" xlink:href="#a"/><use height="38" transform="translate(-11.95 -17.45)" width="32.05" xlink:href="#b"/><use height="38.95" transform="translate(-12.45 -17.95)" width="33.05" xlink:href="#c"/><use height="9.85" transform="translate(-13.15 .95)" width="34.55" xlink:href="#d"/><use height="15.3" transform="translate(-14.45 6.15)" width="36.35" xlink:href="#e"/><use height="17.2" transform="translate(.7 6.25)" width="7.55" xlink:href="#f"/><use height="7.25" transform="translate(-12.15 2.8)" width="32.3" xlink:href="#g"/><use height="14.6" transform="translate(1.8 7.3)" width="5.5" xlink:href="#h"/><use height="6.05" transform="translate(-12.15 4)" width="32.15" xlink:href="#i"/><use height="10.55" transform="translate(-13.7 9.35)" width="34.7" xlink:href="#j"/><use height="14.4" transform="translate(-13.7 6.85)" width="33.3" xlink:href="#k"/><use height="13.85" transform="translate(-14.45 7.55)" width="35.15" xlink:href="#l"/><use height="14.45" transform="translate(2.5 7.45)" width="2.3" xlink:href="#m"/></g><defs><path d="M35.85.4 36 .25l.05.2.2.55v.5l1.95 10.35q-2.8 1.95-5.95 3.25-5.35 2.4-11.05 2.4l.1-.1h-3.5l.1.15q-5.35-.1-10.4-2.25-4.05-1.8-7.5-4.55L2.4 0l.85.7 1.25.55q1.45.65 1.65.85.8.6 3.25 1.3 6.7 1.9 11.75 1.9l4.95-.4q.1-.7 1.9-1.35l2.6-1 2.65-.95Q35.35.35 35.6.35l.25.05" fill="#270521" fill-rule="evenodd" id="n"/><path d="M27.35 7.4q2.15 4.15 3.55 8.75 1.45 4.7 1.15 9.5-.35 4.95-4.2 8.1-3.8 3.2-8.75 4.05l-2.6.2q-3.6 0-7.05-1.15-4.65-1.6-7.1-5.5Q-.2 27.4.05 23q.2-4.4 2-9.3Q3.85 8.75 7 5.05 10.1 1.3 14.7.1l1.8-.1q1.9.05 3.7.8 4.75 2.05 7.15 6.6" fill="#9e6b2e" fill-rule="evenodd" transform="translate(-.05)" id="o"/><path d="M27.35 7.4Q24.95 2.85 20.2.8 17.55-.3 14.7.1 10.1 1.3 7 5.05q-3.15 3.7-4.95 8.65-1.8 4.9-2 9.3-.25 4.4 2.3 8.35 2.45 3.9 7.1 5.5 4.65 1.55 9.65.95 4.95-.85 8.75-4.05 3.85-3.15 4.2-8.1.3-4.8-1.15-9.5-1.4-4.6-3.55-8.75Z" fill="none" stroke="#231415" stroke-linecap="round" stroke-linejoin="round" transform="translate(.45 .5)" id="p"/><path d="m32 .4.7.3q2.95 1.1 1.25 3.85l-1.2 1.35-1.35.9-1.6.65q-3 1.5-6.25 2.05l-2.25.35-.2-.85-1.3-2.7-.65-.8q7.1 0 12.8-4.5L32 .4M21.1 9l1.2-.2-1.2.2m-6.9-.05-.45.15h.4l-.1.4-.1.35-2.55-.4L7.45 8.4 7 8.25l-2.65-1.2-2.3-1.45-1.7-1.3Q-.5 2.4.65.85l.7-.85Q7.4 4.15 14.5 5.4l1.4.15-.5.75-1.2 2.65" fill="#270521" fill-rule="evenodd" id="q"/><path d="M35.9 10.6q-2.55 1.8-5.55 2.5l-1.55.7q-2.5 1.1-5.4 1.3H22l-1.1.15-.05-7.45 1.2-.65L22.6 6l.1-.65-.1-.7 2.25-.35q3.25-.55 6.25-2.05l1.6-.65 1.35-.9v.7l.8 4.95-.35-2.6 1.85 6.55-.45.3M15.2 5.15q-.2 1.15.7 2.05l.35.3.65.25-.25 7.55Q12.2 15.1 8 13.45l-2.1-.8-1.2-.45Q2.2 11.25.75 9.15l.3-.4-.2-.2L0 6.15l.2-.85 2-2.75L2.75 0 5.1 1.8l.55.05 2.65 1.2 2.1.65 4.85.95-.05.5M1.05 8.75l.3.3-.3-.3" fill="#530053" fill-rule="evenodd" id="r"/><path d="m5.95 1.1 1.3 2.7.2.85.1.7-.1.65-.55 1.15-1.2.65.05 7.45-.1.95-.35.4-.6.4q-1.45.7-2.7-.35l-.35-.4-.15-.95.25-7.55-.65-.25-.35-.3q-.9-.9-.7-2.05l.05-.5.25-.9 1.2-2.65.5-.75.7-.25L5.3.3l.65.8" fill-rule="evenodd" transform="translate(0 -.1)" id="s"/><path d="m13.2 7.1-.45.15h-1.5Q4.7 6.7 0 2.05l.2-.85 1-1.15Q6 2.8 11.35 4.15l2.6.4.45-.1-1.2 2.65M32 2.45Q28.2 6.5 22.75 6.9l-1.45.05-1.2.2-1.3-2.7h.4q6.1-.5 11.25-3.55l1.3-.9.35.7.15.5.05.4-.1.4-.2.45" fill="#6c006c" fill-rule="evenodd" id="t"/><path d="M1.6 6.8h1.95l-.05 7.3-.4.4-.55.1-.8-.2-.15-7.6M.65 1.35 1.3.25 1.75 0l2 .15q1.7 2.1 1.75 4.9-1.85 1.25-4.05.45l-1.4-.8q-.2-1.85.6-3.35" fill="#270521" fill-rule="evenodd" id="u"/><path d="m22.75 5.7-1.45.05-1.2.2-1.3-2.7h.4l1.55.85.3.35q6.4-.1 11.1-4.35L32 1.25Q28.2 5.3 22.75 5.7m-8.8-2.35.45-.1-1.2 2.65-.45.15h-1.5Q4.7 5.5 0 .85L.2 0l3.55 2.35q5.05 2.9 10.2 1" fill="#530053" fill-rule="evenodd" id="v"/><path d="m34.4 5.15.25.35q.15.85-.15 1.7l-1 1.05-1.15.35-.65-.3-.5-.5-.35-.65-.35-.8-2.15 1.05.65-2.9.95.1q1.9.55 3.25 1.85h1.2v-1.3m-6.1-3.6q-2.35 1.05-5.05.85l-1.3-.25-.1-.7 2.25-.35 1.15-.15q1.4-.05 3.05.6m-18.05 6.3 1.95 1.6-.5 1.1-6.55-1.1L3.95 9Q1.45 8.05 0 5.95l.3-.4 2.4 2.2.7.1 1.05.25Q6.4 6.75 8.7 7.15l1 .35.55.35m2.5-5.3q-1.55.35-2.9 0L7.65 4 8 0l1.65.5.65 1.3 1.65-.75 2.55.4-.05.5-1.7.6" fill="#1a001a" fill-rule="evenodd" id="w"/><path d="M22.65 14.4h-1.4l1.25-.85q2.65-1.75 5.55-.45-2.5 1.1-5.4 1.3M33.3.7l-.15.8-1.2-.6L33.3 0v.7M32.8 6l.4 2.95q-1.35-1.3-3.25-1.85L29 7l-1.3 1-.7.95q.05-1.4.85-2.45 1.55-2.25 4.5-1.8L32.8 6m-22.55 4.35L9.7 10l.45-2.7-1.5-1.15.1-.35 1.1-.75q1.85 2.7 4.95 2.05l.7-.3.65.25-.15 2.7-1.4.95-.9.45.25-2.5-1.6.4-1.45.75-.65.55M1.5 4.25 3.05 5.9 2.6 7.7l1.25.5q.45.15.8.55l-1.25 1.6-.7-.1-2.6-2.4-.1-.3q.2-1.4 1-2.6l.5-.7" fill="#330042" fill-rule="evenodd" id="x"/><path d="M35.15 8.25h-1.2l-.4-2.95L33.1 4q-2.95-.45-4.5 1.8-.8 1.05-.85 2.45l.7-.95-.9 2.3 1.75.6 1.5.85-.45.65-1.55.7q-2.9-1.3-5.55.45L22 13.7l-1.1.15.05-.95 2.25-.9q1.8-.8 3.3-2.4l-.05-1.85-1.9 1.5-1.9 1.25-1.3-1.95 1.75-1.4 1.2-.85-2.25-.55.55-1.15 3.2.5 1.3.3 1.95-2.05Q27.4 2.7 26 2.75l-1.15.15Q28.1 2.35 31.1.85L32.7.2l1.2.6.15-.8 1.1 6.95v1.3M10.4 2.3l2.3.55-1.65.75-.65-1.3m3.7 9.75L11 9.65l.65-.55 1.45-.75 1.6-.4-.25 2.5.9-.45 1.4-.95v.3l-.35.7q-.75 1.5-2.3 2M10.9 6.6l-.45 2.7-1-.35q-2.3-.4-4.25.95l-1.05-.25 1.25-1.6-.8-.55L3.35 7l.45-1.8-1.55-1.65-.5.7q-.8 1.2-1 2.6L0 4.75l.2-.85 2-2.75L4 .6 5.1.4l.55.05 2.65 1.2-.4.25L5.5.55q.25 2.2 1.35 4.3l.75 1.3.75.05 1.05-.75 1.5 1.15" fill="#a400a4" fill-rule="evenodd" id="y"/><path d="M.8.3 1.95 0l-.1 1.05q-.3 2.1-1.8 3.4l-.05-1Q0 1.7.8.3m.1 6.35.7.05q-.2 2.85.35 5.75l.35 1.85-.45.15-.8-.2-.15-7.6" fill="#530053" fill-rule="evenodd" id="z"/><use height="17.55" width="38.2" xlink:href="#n" id="a"/><use height="38" width="32.05" xlink:href="#o" id="b"/><use height="38.95" width="33.05" xlink:href="#p" id="c"/><use height="9.85" width="34.55" xlink:href="#q" id="d"/><use height="15.3" width="36.35" xlink:href="#r" id="e"/><use height="17.2" width="7.55" xlink:href="#s" id="f"/><use height="7.25" width="32.3" xlink:href="#t" id="g"/><use height="14.6" width="5.5" xlink:href="#u" id="h"/><use height="6.05" width="32.15" xlink:href="#v" id="i"/><use height="10.55" width="34.7" xlink:href="#w" id="j"/><use height="14.4" width="33.3" xlink:href="#x" id="k"/><use height="13.85" width="35.15" xlink:href="#y" id="l"/><use height="14.45" width="2.3" xlink:href="#z" id="m"/></defs></svg>

<?xml version="1.0" encoding="UTF-8" standalone="no"?>
<svg xmlns:xlink="http://www.w3.org/1999/xlink" height="82.0px" width="84.85px" xmlns="http://www.w3.org/2000/svg">
  <g transform="matrix(1.0, 0.0, 0.0, 1.0, 37.4, 42.25)">
    <use height="17.55" transform="matrix(1.0, 0.0, 0.0, 1.0, -15.2, 5.25)" width="38.2" xlink:href="#sprite0"/>
    <use height="38.0" transform="matrix(1.0, 0.0, 0.0, 1.0, -11.95, -17.45)" width="32.05" xlink:href="#sprite1"/>
    <use height="38.95" transform="matrix(1.0, 0.0, 0.0, 1.0, -12.45, -17.95)" width="33.05" xlink:href="#sprite2"/>
    <use height="9.85" transform="matrix(1.0, 0.0, 0.0, 1.0, -13.15, 0.95)" width="34.55" xlink:href="#sprite3"/>
    <use height="15.3" transform="matrix(1.0, 0.0, 0.0, 1.0, -14.45, 6.15)" width="36.35" xlink:href="#sprite4"/>
    <use height="17.2" transform="matrix(1.0, 0.0, 0.0, 1.0, 0.7, 6.25)" width="7.55" xlink:href="#sprite5"/>
    <use height="7.25" transform="matrix(1.0, 0.0, 0.0, 1.0, -12.15, 2.8)" width="32.3" xlink:href="#sprite6"/>
    <use height="14.6" transform="matrix(1.0, 0.0, 0.0, 1.0, 1.8, 7.3)" width="5.5" xlink:href="#sprite7"/>
    <use height="6.05" transform="matrix(1.0, 0.0, 0.0, 1.0, -12.15, 4.0)" width="32.15" xlink:href="#sprite8"/>
    <use height="10.55" transform="matrix(1.0, 0.0, 0.0, 1.0, -13.7, 9.35)" width="34.7" xlink:href="#sprite9"/>
    <use height="14.4" transform="matrix(1.0, 0.0, 0.0, 1.0, -13.7, 6.85)" width="33.3" xlink:href="#sprite10"/>
    <use height="13.85" transform="matrix(1.0, 0.0, 0.0, 1.0, -14.45, 7.55)" width="35.15" xlink:href="#sprite11"/>
    <use height="14.45" transform="matrix(1.0, 0.0, 0.0, 1.0, 2.5, 7.45)" width="2.3" xlink:href="#sprite12"/>
  </g>
  <defs>
    <g id="sprite0" transform="matrix(1.0, 0.0, 0.0, 1.0, 0.0, 0.0)">
      <use height="17.55" transform="matrix(1.0, 0.0, 0.0, 1.0, 0.0, 0.0)" width="38.2" xlink:href="#shape0"/>
    </g>
    <g id="shape0" transform="matrix(1.0, 0.0, 0.0, 1.0, 0.0, 0.0)">
      <path d="M35.85 0.4 L36.0 0.25 36.05 0.45 36.25 1.0 36.25 1.5 38.2 11.85 Q35.4 13.8 32.25 15.1 26.9 17.5 21.2 17.5 L21.3 17.4 19.95 17.4 17.8 17.4 17.9 17.55 Q12.55 17.45 7.5 15.3 3.45 13.5 0.0 10.75 L2.4 0.0 3.25 0.7 4.5 1.25 Q5.95 1.9 6.15 2.1 6.95 2.7 9.4 3.4 16.1 5.3 21.15 5.3 L26.1 4.9 Q26.2 4.2 28.0 3.55 L30.6 2.55 33.25 1.6 Q35.35 0.35 35.6 0.35 L35.85 0.4" fill="#270521" fill-rule="evenodd" stroke="none"/>
    </g>
    <g id="sprite1" transform="matrix(1.0, 0.0, 0.0, 1.0, -0.05, 0.0)">
      <use height="38.0" transform="matrix(1.0, 0.0, 0.0, 1.0, 0.05, 0.0)" width="32.05" xlink:href="#shape1"/>
    </g>
    <g id="shape1" transform="matrix(1.0, 0.0, 0.0, 1.0, -0.05, 0.0)">
      <path d="M27.35 7.4 Q29.5 11.55 30.9 16.15 32.35 20.85 32.05 25.65 31.7 30.6 27.85 33.75 24.05 36.95 19.1 37.8 L16.5 38.0 Q12.9 38.0 9.45 36.85 4.8 35.25 2.35 31.35 -0.2 27.4 0.05 23.0 0.25 18.6 2.05 13.7 3.85 8.75 7.0 5.05 10.1 1.3 14.7 0.1 L16.5 0.0 Q18.4 0.05 20.2 0.8 24.95 2.85 27.35 7.4" fill="#9e6b2e" fill-rule="evenodd" stroke="none"/>
    </g>
    <g id="sprite2" transform="matrix(1.0, 0.0, 0.0, 1.0, 0.45, 0.5)">
      <use height="38.95" transform="matrix(1.0, 0.0, 0.0, 1.0, -0.45, -0.5)" width="33.05" xlink:href="#shape2"/>
    </g>
    <g id="shape2" transform="matrix(1.0, 0.0, 0.0, 1.0, 0.45, 0.5)">
      <path d="M27.35 7.4 Q24.95 2.85 20.2 0.8 17.55 -0.3 14.7 0.1 10.1 1.3 7.0 5.05 3.85 8.75 2.05 13.7 0.25 18.6 0.05 23.0 -0.2 27.4 2.35 31.35 4.8 35.25 9.45 36.85 14.1 38.4 19.1 37.8 24.05 36.95 27.85 33.75 31.7 30.6 32.05 25.65 32.35 20.85 30.9 16.15 29.5 11.55 27.35 7.4 Z" fill="none" stroke="#231415" stroke-linecap="round" stroke-linejoin="round" stroke-width="1.0"/>
    </g>
    <g id="sprite3" transform="matrix(1.0, 0.0, 0.0, 1.0, 0.0, 0.0)">
      <use height="9.85" transform="matrix(1.0, 0.0, 0.0, 1.0, 0.0, 0.0)" width="34.55" xlink:href="#shape3"/>
    </g>
    <g id="shape3" transform="matrix(1.0, 0.0, 0.0, 1.0, 0.0, 0.0)">
      <path d="M32.0 0.4 L32.7 0.7 Q35.65 1.8 33.95 4.55 L32.75 5.9 31.4 6.8 29.8 7.45 Q26.8 8.95 23.55 9.5 L21.3 9.85 21.1 9.0 19.8 6.3 19.15 5.5 Q26.25 5.5 31.95 1.0 L32.0 0.4 M21.1 9.0 L22.3 8.8 21.1 9.0 M14.2 8.95 L13.75 9.1 14.15 9.1 14.05 9.5 13.95 9.85 11.4 9.45 7.45 8.4 7.0 8.25 4.35 7.05 2.05 5.6 0.35 4.3 Q-0.5 2.4 0.65 0.85 L1.35 0.0 Q7.4 4.15 14.5 5.4 L15.9 5.55 15.4 6.3 14.2 8.95" fill="#270521" fill-rule="evenodd" stroke="none"/>
    </g>
    <g id="sprite4" transform="matrix(1.0, 0.0, 0.0, 1.0, 0.0, 0.0)">
      <use height="15.3" transform="matrix(1.0, 0.0, 0.0, 1.0, 0.0, 0.0)" width="36.35" xlink:href="#shape4"/>
    </g>
    <g id="shape4" transform="matrix(1.0, 0.0, 0.0, 1.0, 0.0, 0.0)">
      <path d="M35.9 10.6 Q33.35 12.4 30.35 13.1 L28.8 13.8 Q26.3 14.9 23.4 15.1 L22.0 15.1 20.9 15.25 20.85 7.8 22.05 7.15 22.6 6.0 22.7 5.35 22.6 4.65 24.85 4.3 Q28.1 3.75 31.1 2.25 L32.7 1.6 34.05 0.7 34.05 1.4 34.85 6.35 34.5 3.75 36.35 10.3 35.9 10.6 M15.2 5.15 Q15.0 6.3 15.9 7.2 L16.25 7.5 16.9 7.75 16.65 15.3 Q12.2 15.1 8.0 13.45 L5.9 12.65 4.7 12.2 Q2.2 11.25 0.75 9.15 L1.05 8.75 0.85 8.55 0.0 6.15 0.2 5.3 2.2 2.55 2.75 0.0 5.1 1.8 5.65 1.85 8.3 3.05 10.4 3.7 15.25 4.65 15.2 5.15 M1.05 8.75 L1.35 9.05 1.05 8.75" fill="#530053" fill-rule="evenodd" stroke="none"/>
    </g>
    <g id="sprite5" transform="matrix(1.0, 0.0, 0.0, 1.0, 0.0, -0.1)">
      <use height="17.2" transform="matrix(1.0, 0.0, 0.0, 1.0, 0.0, 0.1)" width="7.55" xlink:href="#shape5"/>
    </g>
    <g id="shape5" transform="matrix(1.0, 0.0, 0.0, 1.0, 0.0, -0.1)">
      <path d="M5.95 1.1 L7.25 3.8 7.45 4.65 7.55 5.35 7.45 6.0 6.9 7.15 5.7 7.8 5.75 15.25 5.65 16.2 5.3 16.6 4.7 17.0 Q3.25 17.7 2.0 16.65 L1.65 16.25 1.5 15.3 1.75 7.75 1.1 7.5 0.75 7.2 Q-0.15 6.3 0.05 5.15 L0.1 4.65 0.35 3.75 1.55 1.1 2.05 0.35 2.75 0.1 5.3 0.3 5.95 1.1" fill="#000000" fill-rule="evenodd" stroke="none"/>
    </g>
    <g id="sprite6" transform="matrix(1.0, 0.0, 0.0, 1.0, 0.0, 0.0)">
      <use height="7.25" transform="matrix(1.0, 0.0, 0.0, 1.0, 0.0, 0.0)" width="32.3" xlink:href="#shape6"/>
    </g>
    <g id="shape6" transform="matrix(1.0, 0.0, 0.0, 1.0, 0.0, 0.0)">
      <path d="M13.2 7.1 L12.75 7.25 11.25 7.25 Q4.7 6.7 0.0 2.05 L0.2 1.2 1.2 0.05 Q6.0 2.8 11.35 4.15 L13.95 4.55 14.4 4.45 13.2 7.1 M32.0 2.45 Q28.2 6.5 22.75 6.9 L21.3 6.95 20.1 7.15 18.8 4.45 19.2 4.45 Q25.3 3.95 30.45 0.9 L31.75 0.0 32.1 0.7 32.25 1.2 32.3 1.6 32.2 2.0 32.0 2.45" fill="#6c006c" fill-rule="evenodd" stroke="none"/>
    </g>
    <g id="sprite7" transform="matrix(1.0, 0.0, 0.0, 1.0, 0.0, 0.0)">
      <use height="14.6" transform="matrix(1.0, 0.0, 0.0, 1.0, 0.0, 0.0)" width="5.5" xlink:href="#shape7"/>
    </g>
    <g id="shape7" transform="matrix(1.0, 0.0, 0.0, 1.0, 0.0, 0.0)">
      <path d="M1.6 6.8 L3.55 6.8 3.5 14.1 3.1 14.5 2.55 14.6 1.75 14.4 1.6 6.8 M0.65 1.35 L1.3 0.25 1.75 0.0 3.75 0.15 Q5.45 2.25 5.5 5.05 3.65 6.3 1.45 5.5 L0.05 4.7 Q-0.15 2.85 0.65 1.35" fill="#270521" fill-rule="evenodd" stroke="none"/>
    </g>
    <g id="sprite8" transform="matrix(1.0, 0.0, 0.0, 1.0, 0.0, 0.0)">
      <use height="6.05" transform="matrix(1.0, 0.0, 0.0, 1.0, 0.0, 0.0)" width="32.15" xlink:href="#shape8"/>
    </g>
    <g id="shape8" transform="matrix(1.0, 0.0, 0.0, 1.0, 0.0, 0.0)">
      <path d="M22.75 5.7 L21.3 5.75 20.1 5.95 18.8 3.25 19.2 3.25 20.75 4.1 21.05 4.45 Q27.45 4.35 32.15 0.1 L32.0 1.25 Q28.2 5.3 22.75 5.7 M13.95 3.35 L14.4 3.25 13.2 5.9 12.75 6.05 11.25 6.05 Q4.7 5.5 0.0 0.85 L0.2 0.0 3.75 2.35 Q8.8 5.25 13.95 3.35" fill="#530053" fill-rule="evenodd" stroke="none"/>
    </g>
    <g id="sprite9" transform="matrix(1.0, 0.0, 0.0, 1.0, 0.0, 0.0)">
      <use height="10.55" transform="matrix(1.0, 0.0, 0.0, 1.0, 0.0, 0.0)" width="34.7" xlink:href="#shape9"/>
    </g>
    <g id="shape9" transform="matrix(1.0, 0.0, 0.0, 1.0, 0.0, 0.0)">
      <path d="M34.4 5.15 L34.65 5.5 Q34.8 6.35 34.5 7.2 L33.5 8.25 32.35 8.6 31.7 8.3 31.2 7.8 30.85 7.15 30.5 6.35 28.35 7.4 29.0 4.5 29.95 4.6 Q31.85 5.15 33.2 6.45 L34.4 6.45 34.4 5.15 M28.3 1.55 Q25.95 2.6 23.25 2.4 L21.95 2.15 21.85 1.45 24.1 1.1 25.25 0.95 Q26.65 0.9 28.3 1.55 M10.25 7.85 L12.2 9.45 11.7 10.55 5.15 9.45 3.95 9.0 Q1.45 8.05 0.0 5.95 L0.3 5.55 2.7 7.75 3.4 7.85 4.45 8.1 Q6.4 6.75 8.7 7.15 L9.7 7.5 10.25 7.85 M12.75 2.55 Q11.2 2.9 9.85 2.55 L7.65 4.0 8.0 0.0 9.65 0.5 10.3 1.8 11.95 1.05 14.5 1.45 14.45 1.95 12.75 2.55" fill="#1a001a" fill-rule="evenodd" stroke="none"/>
    </g>
    <g id="sprite10" transform="matrix(1.0, 0.0, 0.0, 1.0, 0.0, 0.0)">
      <use height="14.4" transform="matrix(1.0, 0.0, 0.0, 1.0, 0.0, 0.0)" width="33.3" xlink:href="#shape10"/>
    </g>
    <g id="shape10" transform="matrix(1.0, 0.0, 0.0, 1.0, 0.0, 0.0)">
      <path d="M22.65 14.4 L21.25 14.4 22.5 13.55 Q25.15 11.8 28.05 13.1 25.55 14.2 22.65 14.4 M33.3 0.7 L33.15 1.5 31.95 0.9 33.3 0.0 33.3 0.7 M32.8 6.0 L33.2 8.95 Q31.85 7.65 29.95 7.1 L29.0 7.0 27.7 8.0 27.0 8.95 Q27.05 7.55 27.85 6.5 29.4 4.25 32.35 4.7 L32.8 6.0 M10.25 10.35 L9.7 10.0 10.15 7.3 8.65 6.15 8.75 5.8 9.85 5.05 Q11.7 7.75 14.8 7.1 L15.5 6.8 16.15 7.05 16.0 9.75 14.6 10.7 13.7 11.15 13.95 8.65 12.35 9.05 10.9 9.8 10.25 10.35 M1.5 4.25 L3.05 5.9 2.6 7.7 3.85 8.2 Q4.3 8.35 4.65 8.75 L3.4 10.35 2.7 10.25 0.1 7.85 0.0 7.55 Q0.2 6.15 1.0 4.95 L1.5 4.25" fill="#330042" fill-rule="evenodd" stroke="none"/>
    </g>
    <g id="sprite11" transform="matrix(1.0, 0.0, 0.0, 1.0, 0.0, 0.0)">
      <use height="13.85" transform="matrix(1.0, 0.0, 0.0, 1.0, 0.0, 0.0)" width="35.15" xlink:href="#shape11"/>
    </g>
    <g id="shape11" transform="matrix(1.0, 0.0, 0.0, 1.0, 0.0, 0.0)">
      <path d="M35.15 8.25 L33.95 8.25 33.55 5.3 33.1 4.0 Q30.15 3.55 28.6 5.8 27.8 6.85 27.75 8.25 L28.45 7.3 27.55 9.6 29.3 10.2 30.8 11.05 30.35 11.7 28.8 12.4 Q25.9 11.1 23.25 12.85 L22.0 13.7 20.9 13.85 20.95 12.9 23.2 12.0 Q25.0 11.2 26.5 9.6 L26.45 7.75 24.55 9.25 22.65 10.5 21.35 8.55 23.1 7.15 24.3 6.3 22.05 5.75 22.6 4.6 25.8 5.1 27.1 5.4 29.05 3.35 Q27.4 2.7 26.0 2.75 L24.85 2.9 Q28.1 2.35 31.1 0.85 L32.7 0.2 33.9 0.8 34.05 0.0 35.15 6.95 35.15 8.25 M10.4 2.3 L12.7 2.85 11.05 3.6 10.4 2.3 M14.1 12.05 L11.0 9.65 11.65 9.1 13.1 8.35 14.7 7.95 14.45 10.45 15.35 10.0 16.75 9.05 16.75 9.35 16.4 10.05 Q15.65 11.55 14.1 12.05 M10.9 6.6 L10.45 9.3 9.45 8.95 Q7.15 8.55 5.2 9.9 L4.15 9.65 5.4 8.05 4.6 7.5 3.35 7.0 3.8 5.2 2.25 3.55 1.75 4.25 Q0.95 5.45 0.75 6.85 L0.0 4.75 0.2 3.9 2.2 1.15 4.0 0.6 5.1 0.4 5.65 0.45 8.3 1.65 7.9 1.9 5.5 0.55 Q5.75 2.75 6.85 4.85 L7.6 6.15 8.35 6.2 9.4 5.45 10.9 6.6" fill="#a400a4" fill-rule="evenodd" stroke="none"/>
    </g>
    <g id="sprite12" transform="matrix(1.0, 0.0, 0.0, 1.0, 0.0, 0.0)">
      <use height="14.45" transform="matrix(1.0, 0.0, 0.0, 1.0, 0.0, 0.0)" width="2.3" xlink:href="#shape12"/>
    </g>
    <g id="shape12" transform="matrix(1.0, 0.0, 0.0, 1.0, 0.0, 0.0)">
      <path d="M0.8 0.3 L1.95 0.0 1.85 1.05 Q1.55 3.15 0.05 4.45 L0.0 3.45 Q0.0 1.7 0.8 0.3 M0.9 6.65 L1.6 6.7 Q1.4 9.55 1.95 12.45 L2.3 14.3 1.85 14.45 1.05 14.25 0.9 6.65" fill="#530053" fill-rule="evenodd" stroke="none"/>
    </g>
  </defs>
</svg>
